X:1
T:Szállj, dalom
C:Sillye Jenő
Z:Public Domain
L:1/8
M:4/4
K:C
V:1 treble 
%%MIDI program 52
V:1
"Am" z AAE/E/- E2 z2 |[M:2/4]"Dm" z z/ F/ FG |[M:4/4]"G" FE/D/- D2 z2 G/DF/ |"C" F E3"B7" z2 B^F | %4
w: Ó, Is- te- nünk, *|E- léd le-|tér- de- lünk, * kö- nyör- günk|Hoz- zád, Té- ged|
"E" ^G>A G2 z2 GA/B/ |"Am" (c3 A)"Dm" A2 z2 |[M:2/4]"G" GA GD/E/- |[M:4/4]"C" E2 z2 z4 | %8
w: kér szí- vünk: áldd meg a|né- * pünk,|álld meg nem- ze- tünk!||
"E" z4 z2 z E |"Am" EE/E/-EE"F" F<FF z |"G" G<AGD/E/-"C" E2 z E |"Dm" FGFE"G" DE/F/- F/D/"C"E- | %12
w: "A|nagy- vi- lá- * gon e kí- vül"|se- hol- sincs he- lyünk, * s~mi|egy- más- tól is meg- ta- gad- * tuk itt,|
 E2 z E"Dm" F>EDC/"E"B,/- | B,2 z2 z4 |:"Am""^Refrén" C2 B,<A,"Dm" A2 z2 |"G" GAGF/"C"E/- E2 z2 | %16
w: * hogy bol- do- gok le- gyünk.||Szállj, da- lom, szállj,|gyön- ge kis- ma- dár, *|
"Am" C<B, A,<A,"Dm" A2 z z/ A/ |"G" BA/G/-GD"C" E2 z2 |"Dm" FG/F/-FE"G" DC/B,/- B,2 | %19
w: ha- tá- ro- kon túl, a|Har- gi- tá- * ig szállj,|bá- to- rítsd * a csüg- ge- dőt, *|
[M:3/4]"C" EF EE GE/"Am"c/- |1[M:4/4] c4"E" z4 :|2"Am" c6 z2 |"F" FG z F/E/"G" DEDB, | %23
w: ví- gasz- tald a szen- ve- dőt,||dőt,|Krisz- tus so- ha el nem hagy- ja|
 C4-"F" C2"C" z2 |"E" z8 ||"Am" z AAE/E/- E2 z2 |[M:2/4]"Dm" z z/ F/ FG | %27
w: őt! *||Ó, Is- te- nünk, *|e- léd le|
[M:4/4]"G" FE/D/- D2 z2 G/DF/ |"C" F E3"B7" z2 B^F |"E" ^G>A G2 z2 GA/B/ |"Am" (c3 A)"Dm" A2 z2 | %31
w: tér- de- lünk, * kö- nyör- günk|Hoz- zád, Té- ged|kér szí- vünk, áldd meg a|né- * pünk,|
[M:2/4]"G" GA GD/"C"E/- |[M:4/4] E2 z2 z4 |"E" z8 |"Am" z AAE E E2 z |[M:2/4]"Dm" FG FE/"G"D/- | %36
w: álld meg nem- ze- tünk!|||Mint ol- dott ké- vét,|hány- szor szór- ta szét|
 D2 GD |[M:4/4]"C" F<E z2"B7" z2 B/^FA/ |"E" ^G4 z GAB/"Am"c/- | cB A/G/"Dm"F- F2 z A | %40
w: * ször- nyű|vi- har, le- súj- tott|ránk, Ó, meny- nyi nem-|* zet fi- a néz * ma|
[M:2/4]"G" GA GD/"C"E/- |[M:4/4] E4 z4 |"E" z8 |] %43
w: gyű- löl- köd- ve ránk?|||

